X:1
T:Trocadéro, 11.11.11.11
T:Trocadéro, 11.11.11.11
T:Robert Charles Winthrop, 1896
T:Public Domain Courtesy of the Cyber Hymnal™
C:Robert Charles Winthrop, 1896
Z:Public Domain
Z:Courtesy of the Cyber Hymnal™
%%score ( 1 2 ) ( 3 4 )
L:1/8
Q:1/4=117
M:4/4
K:Db
V:1 treble 
V:2 treble 
V:3 bass 
V:4 bass 
V:1
 [FA]2 | [FA]4 [Fd]2 [GB]2 | [FA]4 [DF]2 [DF]2 | ([DF]2 [CE]2) [CA]2 [EG]2 | [DF]6 A2 | %5
 [GB]4 [GB]2 [GB]2 | [FA]4 [DF]2 [DF]2 | [DF]4 [EG]2 [DF]2 | [CE]6 [GA]2 | [FA]4 [Fd]2 [GB]2 | %10
 [FA]4 [DF]2 [DF]2 | [DF]4 [=DB]2 [DA]2 | [EG]6 [DA]2 | [GB]4 [Ac]2 [Ad]2 | [Fd]4 [FA]2 [DF]2 | %15
 ([DF]2 [CE]2) [CA]2 [A,C]2 | [A,D]6 |] %17
V:2
 x2 | x8 | x8 | x8 | x6 A2 | x8 | x8 | x8 | x8 | x8 | x8 | x8 | x8 | x8 | x8 | x8 | x6 |] %17
V:3
 [D,A,]2 | [D,A,]4 [D,A,]2 [D,D]2 | [D,D]4 [D,A,]2 [D,A,]2 | [A,,A,]4 [A,,E,]2 [A,,A,]2 | %4
 [D,A,]6 [F,D]2 | [G,D]4 [G,,D]2 [B,,D]2 | [D,D]4 [D,A,]2 [D,A,]2 | [D,A,]4 [C,A,]2 [D,A,]2 | %8
 [A,,A,]6 [A,,A,]2 | [D,A,]4 [D,A,]2 [D,D]2 | [D,D]4 [D,A,]2 [D,A,]2 | [B,,B,]4 [B,,F,]2 [B,,B,]2 | %12
 [E,B,]6 [F,A,]2 | [G,D]4 [G,A,]2 [F,A,]2 | [D,A,]4 [D,D]2 [F,A,]2 | A,4 [A,,A,]2 [A,,G,]2 | %16
 [D,F,]6 |] %17
V:4
 x2 | x8 | x8 | x8 | x8 | x8 | x8 | x8 | x8 | x8 | x8 | x8 | x8 | x8 | x8 | A,4 x4 | x6 |] %17

